Flat-Remix-Dark/apps/scalable/gftp.svg

<svg xmlns="http://www.w3.org/2000/svg" xmlns:xlink="http://www.w3.org/1999/xlink" width="384pt" height="384pt" version="1.1" viewBox="0 0 384 384">
 <defs>
  <filter id="alpha" width="100%" height="100%" x="0%" y="0%" filterUnits="objectBoundingBox">
   <feColorMatrix in="SourceGraphic" type="matrix" values="0 0 0 0 1 0 0 0 0 1 0 0 0 0 1 0 0 0 1 0"/>
  </filter>
  <mask id="mask0">
   <g filter="url(#alpha)">
    <rect width="384" height="384" x="0" y="0" style="fill:rgb(0%,0%,0%);fill-opacity:0.2"/>
   </g>
  </mask>
  <clipPath id="clip1">
   <rect width="384" height="384" x="0" y="0"/>
  </clipPath>
  <g id="surface5" clip-path="url(#clip1)">
   <path style="fill:rgb(0%,0%,0%)" d="M 72 288 L 312 288 L 312 324 L 72 324 Z M 72 288"/>
  </g>
  <mask id="mask1">
   <g filter="url(#alpha)">
    <rect width="384" height="384" x="0" y="0" style="fill:rgb(0%,0%,0%);fill-opacity:0.2"/>
   </g>
  </mask>
  <clipPath id="clip2">
   <rect width="384" height="384" x="0" y="0"/>
  </clipPath>
  <g id="surface8" clip-path="url(#clip2)">
   <path style="fill:rgb(100%,100%,100%)" d="M 40.804688 24 C 31.496094 24 24 31.496094 24 40.800781 L 24 46.800781 C 24 37.496094 31.496094 30 40.804688 30 L 343.195312 30 C 352.496094 30 360 37.496094 360 46.800781 L 360 40.800781 C 360 31.496094 352.496094 24 343.195312 24 Z M 40.804688 24"/>
  </g>
  <mask id="mask2">
   <g filter="url(#alpha)">
    <rect width="384" height="384" x="0" y="0" style="fill:rgb(0%,0%,0%);fill-opacity:0.2"/>
   </g>
  </mask>
  <clipPath id="clip3">
   <rect width="384" height="384" x="0" y="0"/>
  </clipPath>
  <g id="surface11" clip-path="url(#clip3)">
   <path style="fill:rgb(0%,0%,0%)" d="M 24 343.195312 L 24 349.195312 C 24 358.496094 31.496094 366 40.804688 366 L 343.195312 366 C 352.496094 366 360 358.496094 360 349.195312 L 360 343.195312 C 360 352.496094 352.496094 360 343.195312 360 L 40.804688 360 C 31.496094 360 24 352.496094 24 343.195312 Z M 24 343.195312"/>
  </g>
  <mask id="mask3">
   <g filter="url(#alpha)">
    <rect width="384" height="384" x="0" y="0" style="fill:rgb(0%,0%,0%);fill-opacity:0.2"/>
   </g>
  </mask>
  <clipPath id="clip4">
   <rect width="384" height="384" x="0" y="0"/>
  </clipPath>
  <g id="surface14" clip-path="url(#clip4)">
   <path style="fill:rgb(0%,0%,0%)" d="M 120 306 C 120 325.882812 103.882812 342 84 342 C 64.117188 342 48 325.882812 48 306 C 48 286.117188 64.117188 270 84 270 C 103.882812 270 120 286.117188 120 306 Z M 120 306"/>
  </g>
  <mask id="mask4">
   <g filter="url(#alpha)">
    <rect width="384" height="384" x="0" y="0" style="fill:rgb(0%,0%,0%);fill-opacity:0.2"/>
   </g>
  </mask>
  <clipPath id="clip5">
   <rect width="384" height="384" x="0" y="0"/>
  </clipPath>
  <g id="surface17" clip-path="url(#clip5)">
   <path style="fill:rgb(0%,0%,0%)" d="M 228 306 C 228 325.882812 211.882812 342 192 342 C 172.117188 342 156 325.882812 156 306 C 156 286.117188 172.117188 270 192 270 C 211.882812 270 228 286.117188 228 306 Z M 228 306"/>
  </g>
  <mask id="mask5">
   <g filter="url(#alpha)">
    <rect width="384" height="384" x="0" y="0" style="fill:rgb(0%,0%,0%);fill-opacity:0.2"/>
   </g>
  </mask>
  <clipPath id="clip6">
   <rect width="384" height="384" x="0" y="0"/>
  </clipPath>
  <g id="surface20" clip-path="url(#clip6)">
   <path style="fill:rgb(0%,0%,0%)" d="M 335.992188 306 C 335.992188 325.882812 319.875 342 299.992188 342 C 280.113281 342 263.992188 325.882812 263.992188 306 C 263.992188 286.117188 280.113281 270 299.992188 270 C 319.875 270 335.992188 286.117188 335.992188 306 Z M 335.992188 306"/>
  </g>
  <mask id="mask6">
   <g filter="url(#alpha)">
    <rect width="384" height="384" x="0" y="0" style="fill:rgb(0%,0%,0%);fill-opacity:0.2"/>
   </g>
  </mask>
  <clipPath id="clip7">
   <rect width="384" height="384" x="0" y="0"/>
  </clipPath>
  <g id="surface23" clip-path="url(#clip7)">
   <path style="fill:rgb(0%,0%,0%)" d="M 116.039062 54.003906 C 104.9375 54.003906 96 62.945312 96 74.042969 L 96 225.960938 C 96 237.0625 104.9375 246 116.039062 246 L 267.957031 246 C 279.058594 246 288 237.0625 288 225.960938 L 288 74.042969 C 288 62.941406 279.058594 54.003906 267.957031 54.003906 Z M 144 102.003906 L 240 102.003906 L 240 198.003906 L 144 198.003906 Z M 144 102.003906"/>
  </g>
 </defs>
 <g>
  <path style="fill:rgb(51.764706%,69.411765%,14.901961%)" d="M 360 343.199219 L 360 40.800781 C 360 31.523438 352.476562 24 343.199219 24 L 40.800781 24 C 31.523438 24 24 31.523438 24 40.800781 L 24 343.199219 C 24 352.476562 31.523438 360 40.800781 360 L 343.199219 360 C 352.476562 360 360 352.476562 360 343.199219 Z M 360 343.199219"/>
  <use mask="url(#mask0)" xlink:href="#surface5"/>
  <use mask="url(#mask1)" xlink:href="#surface8"/>
  <use mask="url(#mask2)" xlink:href="#surface11"/>
  <path style="fill:rgb(24.705882%,24.705882%,24.705882%)" d="M 174 240 L 210 240 L 210 288 L 174 288 Z M 174 240"/>
  <path style="fill:rgb(24.705882%,24.705882%,24.705882%)" d="M 72 282 L 312 282 L 312 318 L 72 318 Z M 72 282"/>
  <use mask="url(#mask3)" xlink:href="#surface14"/>
  <path style="fill:rgb(100%,100%,100%)" d="M 120 300 C 120 319.882812 103.882812 336 84 336 C 64.117188 336 48 319.882812 48 300 C 48 280.117188 64.117188 264 84 264 C 103.882812 264 120 280.117188 120 300 Z M 120 300"/>
  <use mask="url(#mask4)" xlink:href="#surface17"/>
  <path style="fill:rgb(100%,100%,100%)" d="M 228 300 C 228 319.882812 211.882812 336 192 336 C 172.117188 336 156 319.882812 156 300 C 156 280.117188 172.117188 264 192 264 C 211.882812 264 228 280.117188 228 300 Z M 228 300"/>
  <use mask="url(#mask5)" xlink:href="#surface20"/>
  <path style="fill:rgb(100%,100%,100%)" d="M 335.992188 300 C 335.992188 319.882812 319.875 336 299.992188 336 C 280.113281 336 263.992188 319.882812 263.992188 300 C 263.992188 280.117188 280.113281 264 299.992188 264 C 319.875 264 335.992188 280.117188 335.992188 300 Z M 335.992188 300"/>
  <use mask="url(#mask6)" xlink:href="#surface23"/>
  <path style="fill:rgb(36.078431%,36.078431%,36.078431%)" d="M 116.039062 48.003906 C 104.9375 48.003906 96 56.945312 96 68.042969 L 96 219.960938 C 96 231.0625 104.9375 240 116.039062 240 L 267.957031 240 C 279.058594 240 288 231.0625 288 219.960938 L 288 68.042969 C 288 56.941406 279.058594 48.003906 267.957031 48.003906 Z M 144 96.003906 L 240 96.003906 L 240 192.003906 L 144 192.003906 Z M 144 96.003906"/>
 </g>
</svg>

<svg xmlns="http://www.w3.org/2000/svg" xmlns:xlink="http://www.w3.org/1999/xlink" width="384pt" height="384pt" version="1.1" viewBox="0 0 384 384">
 <defs>
  <filter id="alpha" width="100%" height="100%" x="0%" y="0%" filterUnits="objectBoundingBox">
   <feColorMatrix in="SourceGraphic" type="matrix" values="0 0 0 0 1 0 0 0 0 1 0 0 0 0 1 0 0 0 1 0"/>
  </filter>
  <mask id="mask0">
   <g filter="url(#alpha)">
    <rect width="384" height="384" x="0" y="0" style="fill:rgb(0%,0%,0%);fill-opacity:0.2"/>
   </g>
  </mask>
  <clipPath id="clip1">
   <rect width="384" height="384" x="0" y="0"/>
  </clipPath>
  <g id="surface5" clip-path="url(#clip1)">
   <path style="fill:rgb(0%,0%,0%)" d="M 72 288 L 312 288 L 312 324 L 72 324 Z M 72 288"/>
  </g>
  <mask id="mask3">
   <g filter="url(#alpha)">
    <rect width="384" height="384" x="0" y="0" style="fill:rgb(0%,0%,0%);fill-opacity:0.2"/>
   </g>
  </mask>
  <clipPath id="clip4">
   <rect width="384" height="384" x="0" y="0"/>
  </clipPath>
  <g id="surface14" clip-path="url(#clip4)">
   <path style="fill:rgb(0%,0%,0%)" d="M 120 306 C 120 325.882812 103.882812 342 84 342 C 64.117188 342 48 325.882812 48 306 C 48 286.117188 64.117188 270 84 270 C 103.882812 270 120 286.117188 120 306 Z M 120 306"/>
  </g>
  <mask id="mask4">
   <g filter="url(#alpha)">
    <rect width="384" height="384" x="0" y="0" style="fill:rgb(0%,0%,0%);fill-opacity:0.2"/>
   </g>
  </mask>
  <clipPath id="clip5">
   <rect width="384" height="384" x="0" y="0"/>
  </clipPath>
  <g id="surface17" clip-path="url(#clip5)">
   <path style="fill:rgb(0%,0%,0%)" d="M 228 306 C 228 325.882812 211.882812 342 192 342 C 172.117188 342 156 325.882812 156 306 C 156 286.117188 172.117188 270 192 270 C 211.882812 270 228 286.117188 228 306 Z M 228 306"/>
  </g>
  <mask id="mask5">
   <g filter="url(#alpha)">
    <rect width="384" height="384" x="0" y="0" style="fill:rgb(0%,0%,0%);fill-opacity:0.2"/>
   </g>
  </mask>
  <clipPath id="clip6">
   <rect width="384" height="384" x="0" y="0"/>
  </clipPath>
  <g id="surface20" clip-path="url(#clip6)">
   <path style="fill:rgb(0%,0%,0%)" d="M 335.992188 306 C 335.992188 325.882812 319.875 342 299.992188 342 C 280.113281 342 263.992188 325.882812 263.992188 306 C 263.992188 286.117188 280.113281 270 299.992188 270 C 319.875 270 335.992188 286.117188 335.992188 306 Z M 335.992188 306"/>
  </g>
  <mask id="mask6">
   <g filter="url(#alpha)">
    <rect width="384" height="384" x="0" y="0" style="fill:rgb(0%,0%,0%);fill-opacity:0.2"/>
   </g>
  </mask>
  <clipPath id="clip7">
   <rect width="384" height="384" x="0" y="0"/>
  </clipPath>
  <g id="surface23" clip-path="url(#clip7)">
   <path style="fill:rgb(0%,0%,0%)" d="M 116.039062 54.003906 C 104.9375 54.003906 96 62.945312 96 74.042969 L 96 225.960938 C 96 237.0625 104.9375 246 116.039062 246 L 267.957031 246 C 279.058594 246 288 237.0625 288 225.960938 L 288 74.042969 C 288 62.941406 279.058594 54.003906 267.957031 54.003906 Z M 144 102.003906 L 240 102.003906 L 240 198.003906 L 144 198.003906 Z M 144 102.003906"/>
  </g>
 </defs>
 <g transform="matrix(1.1479744,0,0,1.1479744,-28.406602,-31.85725)">
  <use width="100%" height="100%" x="0" y="0" mask="url(#mask0)" xlink:href="#surface5"/>
  <path style="fill:#3d3d3d" d="m 174,240 h 36 v 48 h -36 z m 0,0"/>
  <path style="fill:#3d3d3d" d="m 72,282 h 240 v 36 H 72 Z m 0,0"/>
  <use width="100%" height="100%" x="0" y="0" mask="url(#mask3)" xlink:href="#surface14"/>
  <path style="fill:#23bac2" d="m 120,300 c 0,19.88281 -16.11719,36 -36,36 -19.882812,0 -36,-16.11719 -36,-36 0,-19.88281 16.117188,-36 36,-36 19.88281,0 36,16.11719 36,36 z m 0,0"/>
  <use width="100%" height="100%" x="0" y="0" mask="url(#mask4)" xlink:href="#surface17"/>
  <path style="fill:#23bac2" d="m 228,300 c 0,19.88281 -16.11719,36 -36,36 -19.88281,0 -36,-16.11719 -36,-36 0,-19.88281 16.11719,-36 36,-36 19.88281,0 36,16.11719 36,36 z m 0,0"/>
  <use width="100%" height="100%" x="0" y="0" mask="url(#mask5)" xlink:href="#surface20"/>
  <path style="fill:#23bac2" d="m 335.99219,300 c 0,19.88281 -16.11719,36 -36,36 -19.87891,0 -36,-16.11719 -36,-36 0,-19.88281 16.12109,-36 36,-36 19.88281,0 36,16.11719 36,36 z m 0,0"/>
  <use width="100%" height="100%" x="0" y="0" mask="url(#mask6)" xlink:href="#surface23"/>
  <path style="fill:#2e2e2e" d="M 116.03906,48.003906 C 104.9375,48.003906 96,56.945312 96,68.042969 V 219.96094 C 96,231.0625 104.9375,240 116.03906,240 H 267.95703 C 279.05859,240 288,231.0625 288,219.96094 V 68.042969 c 0,-11.101563 -8.94141,-20.039063 -20.04297,-20.039063 z m 27.96094,48 h 96 v 96.000004 h -96 z m 0,0"/>
 </g>
</svg>
